svg/fluentui-system-icons/ic_fluent_pill_20_filled.svg

<svg width="20" height="20" viewBox="0 0 20 20" fill="none" xmlns="http://www.w3.org/2000/svg">
<path d="M11.1468 3.14683C12.7228 1.57085 15.278 1.57085 16.8539 3.14682C18.4299 4.7228 18.4299 7.27796 16.8539 8.85393L8.85393 16.8539C7.27796 18.4299 4.7228 18.4299 3.14682 16.8539C1.57085 15.278 1.57085 12.7228 3.14683 11.1468L11.1468 3.14683ZM16.1468 3.85393C14.9614 2.66848 13.0394 2.66848 11.8539 3.85393L8.20748 7.50038L12.5004 11.7933L16.1468 8.14682C17.3323 6.96137 17.3323 5.03938 16.1468 3.85393ZM8.85408 14.1469C8.65882 13.9517 8.34223 13.9517 8.14697 14.1469L6.64697 15.6469C6.28995 16.004 5.7111 16.004 5.35408 15.6469C5.2636 15.5564 5.13857 15.5005 5.00049 15.5005C4.72435 15.5005 4.50049 15.7243 4.50049 16.0005C4.50049 16.1402 4.55778 16.2665 4.65014 16.3572C5.39794 17.1016 6.60759 17.1005 7.35408 16.354L8.85408 14.854C9.04934 14.6588 9.04934 14.3422 8.85408 14.1469Z" fill="#212121"/>
</svg>

<svg xmlns="http://www.w3.org/2000/svg" width="20" height="20"><path d="M11.147 3.147a4.036 4.036 0 1 1 5.707 5.707l-8 8a4.035 4.035 0 1 1-5.707-5.707l8-8Zm5 .707a3.036 3.036 0 0 0-4.293 0L8.207 7.5l4.293 4.293 3.647-3.646a3.035 3.035 0 0 0 0-4.293ZM8.854 14.147a.5.5 0 0 0-.707 0l-1.5 1.5a.914.914 0 0 1-1.293 0A.498.498 0 0 0 4.5 16a.5.5 0 0 0 .15.357 1.914 1.914 0 0 0 2.704-.003l1.5-1.5a.5.5 0 0 0 0-.707Z"/></svg>
